svgs/light/suitcase-rolling.svg

<svg xmlns="http://www.w3.org/2000/svg" viewBox="0 0 384 512"><!--! Font Awesome Pro 6.6.0 by @fontawesome - https://fontawesome.com License - https://fontawesome.com/license (Commercial License) Copyright 2024 Fonticons, Inc. --><path d="M128 48l0 80 128 0 0-80c0-8.8-7.2-16-16-16l-96 0c-8.8 0-16 7.2-16 16zM96 128l0-80c0-26.5 21.5-48 48-48l96 0c26.5 0 48 21.5 48 48l0 80 32 0c35.3 0 64 28.7 64 64l0 224c0 35.3-28.7 64-64 64l0 16c0 8.8-7.2 16-16 16s-16-7.2-16-16l0-16L96 480l0 16c0 8.8-7.2 16-16 16s-16-7.2-16-16l0-16c-35.3 0-64-28.7-64-64L0 192c0-35.3 28.7-64 64-64l32 0zM80 448l224 0 16 0c17.7 0 32-14.3 32-32l0-224c0-17.7-14.3-32-32-32l-48 0-160 0-48 0c-17.7 0-32 14.3-32 32l0 224c0 17.7 14.3 32 32 32l16 0zM96 256c0-8.8 7.2-16 16-16l160 0c8.8 0 16 7.2 16 16s-7.2 16-16 16l-160 0c-8.8 0-16-7.2-16-16zm0 96c0-8.8 7.2-16 16-16l160 0c8.8 0 16 7.2 16 16s-7.2 16-16 16l-160 0c-8.8 0-16-7.2-16-16z"/></svg>

<svg xmlns="http://www.w3.org/2000/svg" viewBox="0 0 384 512"><!--! Font Awesome Pro 6.5.2 by @fontawesome - https://fontawesome.com License - https://fontawesome.com/license (Commercial License) Copyright 2024 Fonticons, Inc. --><path d="M128 48v80H256V48c0-8.8-7.2-16-16-16H144c-8.8 0-16 7.2-16 16zM96 128V48c0-26.5 21.5-48 48-48h96c26.5 0 48 21.5 48 48v80h32c35.3 0 64 28.7 64 64V416c0 35.3-28.7 64-64 64v16c0 8.8-7.2 16-16 16s-16-7.2-16-16V480H96v16c0 8.8-7.2 16-16 16s-16-7.2-16-16l0-16c-35.3 0-64-28.7-64-64V192c0-35.3 28.7-64 64-64H96zM80 448H304h16c17.7 0 32-14.3 32-32V192c0-17.7-14.3-32-32-32H272 112 64c-17.7 0-32 14.3-32 32V416c0 17.7 14.3 32 32 32H80zM96 256c0-8.8 7.2-16 16-16H272c8.8 0 16 7.2 16 16s-7.2 16-16 16H112c-8.8 0-16-7.2-16-16zm0 96c0-8.8 7.2-16 16-16H272c8.8 0 16 7.2 16 16s-7.2 16-16 16H112c-8.8 0-16-7.2-16-16z"/></svg>
